!!!PDT:	1923
!!!LANG: Non-Tone
!!!LING_GROUP: Siouan
!!!REG: Dakotas
!!!COM: Anon.
!!!OTL: Dancing Song of the Skunk
!!!ODT: <1918//
!!!MPN: Wopite [Scattered Corn, Mrs. Holding Eagle]
!!!MLC: Fort Berthold Reservation, North Dakota, United States of America
!! Song was recorded during either the summer of 1912, 1915, or 1918.
!!!AGN: monody
!!!SOCIAL_FUNCTION: Songs Connected With Legends and Folk-Tales
!!!AMT: irregular
!!!RWG: Transcribed pitches, durations, and meters are only approximate.
!! Drum not recorded.
**kern
*ICvox
*Ifemale
*clefF4
*k[f#]
*M3/4
*MM63
=1-
16g
16d
8B
16d
8.d
16d
8.d
=2
16g
16d
8B
16d
8.d
16d
8.d
=3
16g
16d
16B
16B
16d
8.d
16d
8.d
=4
16g
16d
16B
16B
16d
8.d
16d
8.d
=5
8d
8B
16e
8.d
16B
8.G
=6
8d
8B
16e
8.d
16B
! added dot:
8.G
=7
8d
8B
16e
8.d
(16B
8.G)
=8
8d
8B
16e
8.d
(16B
8.G)
=9
8d
8D
4d
4d
=10
8e
8d
4B
8B
8B
=11
8e
8d
4B
8B
8B
==
*-
!!!CNT: Mandan
!!!TXO: Mandan
!!!OCY: United States
!!!OCL: Frances Densmore
!!!YOR: Frances Densmore, "Mandan and Hidatsa Music",
!!!YOR: Bulletin 80, page 93, No. 36
!!!PPR: Smithsonian Institution, Bureau of American Ethnology
!!!PPR: Government Printing Office
!!!PDT: 1923
!!!PPP: Washington, DC, United States of America
!!!YEC: Electronic Copyright 2000 David Huron
!!!YER: August 2000
!!!YEN: United States of America
!!!ENC: David Huron
!!!RDT: August 16, 2000
!!!EEV: Release 1.0
!!!AIN: tom, vox
